modules/stroke-7/icons/unlock.svg

<?xml version="1.0" encoding="utf-8"?>
<!-- Generated by IcoMoon.io -->
<!DOCTYPE svg PUBLIC "-//W3C//DTD SVG 1.1//EN" "http://www.w3.org/Graphics/SVG/1.1/DTD/svg11.dtd">
<svg version="1.1" xmlns="http://www.w3.org/2000/svg" xmlns:xlink="http://www.w3.org/1999/xlink" width="32" height="32" viewBox="0 0 32 32">
<g id="icomoon-ignore">
</g>
<path d="M23.464 15.467h-13.328v-6.397c0-3.234 2.631-5.864 5.865-5.864 3.233 0 5.863 2.631 5.863 5.864v2.133h1.066v-2.133c0-3.827-3.103-6.931-6.93-6.931-3.828 0-6.932 3.103-6.932 6.931v6.398h-3.732v14.394h21.325v-14.394h-3.199zM25.596 28.795h-19.192v-12.262h19.192v12.262z" fill="#000000"></path>
</svg>

<svg xmlns="http://www.w3.org/2000/svg" width="32" height="32" viewBox="0 0 32 32"><path d="M23.464 15.467H10.136V9.07a5.87 5.87 0 0 1 5.865-5.864 5.87 5.87 0 0 1 5.863 5.864v2.133h1.066V9.07a6.931 6.931 0 0 0-13.862 0v6.398H5.336v14.394h21.325V15.468h-3.199zm2.132 13.328H6.404V16.533h19.192v12.262z"/></svg>
